X:1
T:[ID 5-15b]
T:[ID 5-15b]
T:Bezeichnung standardisiert: Menuett Menuet
T:Urheber unbekannt Datum in der hier transkribierten schriftlichen Quelle: 1773
C:Urheber unbekannt
C:Datum in der hier transkribierten schriftlichen Quelle: 1773
L:1/8
M:3/4
K:D
V:1 treble 
V:1
 z2 | d2 dddd | d4 e2 | f2 ffff | f4 ed | a2 aaaa | a4 gf | e2 eeee | e6 :: a2 | ag f2 a2 | %11
 ag f2 d2 | e2 efge | f4 a2 | ag f2 a2 | ag f2 a2 | (3bag f2 e2 | d6 :| %18

